assets/icons/24px/outline/sharing-24px.svg

<svg width="24" height="24" viewBox="0 0 24 24" fill="none" xmlns="http://www.w3.org/2000/svg">
<path d="M21 21V20.55C21 19.5734 21 19.085 20.8874 18.6857C20.604 17.6811 19.8189 16.896 18.8143 16.6126C18.415 16.5 17.9266 16.5 16.95 16.5H12.55C11.5734 16.5 11.085 16.5 10.6857 16.6126C9.68108 16.896 8.89596 17.6811 8.61263 18.6857C8.5 19.085 8.5 19.5734 8.5 20.55V21" stroke="white" stroke-width="2" stroke-linecap="round" stroke-linejoin="round"/>
<path d="M3 17.5V15.9C3 15.0633 3 14.6449 3.08289 14.2997C3.34624 13.2027 4.20272 12.3462 5.29966 12.0829C5.64493 12 6.06328 12 6.9 12H7" stroke="white" stroke-width="2" stroke-linecap="round" stroke-linejoin="round"/>
<path d="M18.5 9.5C18.5 11.433 16.933 13 15 13C13.067 13 11.5 11.433 11.5 9.5C11.5 7.567 13.067 6 15 6C16.933 6 18.5 7.567 18.5 9.5Z" stroke="white" stroke-width="2"/>
<path d="M11 4.38038C10.4137 3.54836 9.41108 3 8.27273 3C6.46525 3 5 4.38248 5 6.08785C5 7.43232 5.9107 8.5761 7.18182 9" stroke="white" stroke-width="2" stroke-linecap="round"/>
</svg>

<svg width="24" height="24" fill="none" xmlns="http://www.w3.org/2000/svg"><path d="M21 21v-.45c0-.977 0-1.465-.113-1.864a3 3 0 0 0-2.073-2.073c-.399-.113-.887-.113-1.864-.113h-4.4c-.977 0-1.465 0-1.864.113a3 3 0 0 0-2.073 2.073c-.113.399-.113.887-.113 1.864V21M3 17.5v-1.6c0-.837 0-1.255.083-1.6A3 3 0 0 1 5.3 12.083C5.645 12 6.063 12 6.9 12H7" stroke="#fff" stroke-width="2" stroke-linecap="round" stroke-linejoin="round"/><path d="M18.5 9.5a3.5 3.5 0 1 1-7 0 3.5 3.5 0 0 1 7 0z" stroke="#fff" stroke-width="2"/><path d="M11 4.38C10.414 3.548 9.411 3 8.273 3 6.465 3 5 4.382 5 6.088 5 7.432 5.91 8.576 7.182 9" stroke="#fff" stroke-width="2" stroke-linecap="round"/></svg>
